src/lib/packages/icons/src/assets/filled/line-up-circle.svg

<svg width="24" height="24" viewBox="0 0 24 24" fill="none" xmlns="http://www.w3.org/2000/svg">
<path d="M12 2C6.477 2 2 6.477 2 12C2 17.523 6.477 22 12 22C17.523 22 22 17.523 22 12C22 6.477 17.523 2 12 2ZM17.75 12.5759C17.75 12.9899 17.414 13.3259 17 13.3259C16.586 13.3259 16.25 12.9899 16.25 12.5759V11.506L13.982 13.7739C13.373 14.3829 12.309 14.3839 11.699 13.7739L10.225 12.3C10.187 12.262 10.101 12.262 10.063 12.3L7.52899 14.834C7.38299 14.98 7.19099 15.054 6.99899 15.054C6.80699 15.054 6.61499 14.981 6.46899 14.834C6.17599 14.541 6.17599 14.0659 6.46899 13.7729L9.00299 11.239C9.63099 10.61 10.656 10.609 11.286 11.239L12.76 12.7129C12.805 12.7569 12.877 12.7579 12.922 12.7129L15.19 10.4449H14.12C13.706 10.4449 13.37 10.1089 13.37 9.69495C13.37 9.28095 13.706 8.94495 14.12 8.94495H17C17.098 8.94495 17.195 8.96505 17.287 9.00305C17.47 9.07905 17.616 9.22506 17.692 9.40906C17.73 9.50106 17.75 9.59804 17.75 9.69604V12.5759Z" fill="currentColor"/>
</svg>

<svg xmlns="http://www.w3.org/2000/svg" width="24" height="24" fill="none"><path fill="currentColor" d="M12 2C6.477 2 2 6.477 2 12s4.477 10 10 10 10-4.477 10-10S17.523 2 12 2Zm5.75 10.576a.75.75 0 0 1-1.5 0v-1.07l-2.268 2.268c-.609.609-1.673.61-2.283 0L10.225 12.3c-.038-.038-.124-.038-.162 0l-2.534 2.534a.748.748 0 0 1-1.06 0 .75.75 0 0 1 0-1.061l2.534-2.534a1.616 1.616 0 0 1 2.283 0l1.474 1.474a.115.115 0 0 0 .162 0l2.268-2.268h-1.07a.75.75 0 0 1 0-1.5H17a.75.75 0 0 1 .75.751v2.88Z"/></svg>
